X: 21107
T: Kansas City
R: hornpipe
M: 4/4
K: Dmajor
F2 ~F2 FEFA|=FE D2 D2 ^FA|AB ~B2 AFFA|=FE D2 E2 AD|
EF ~F2 FEFA|=FE D2 D2 ^FA|defa bfae|gf d2 d2 z2|
F2 ~F2 FEFA|=FE D2 D2 AD|B2 ~B2 AFFA|=FE D2 E2 AG|
F2 ~F2 FEFA|=FE D2 D2 ^FA|defa bfae|gf d2 d3A||
de~f2 a2 fa|ab ~b2 affa|=f^f ~f2 =f^ff2|=fe d2 e2 ag|
=f^f af gefd|e^d=dB BAAF|ABde faba|=fe d2 d2 A2|
de ~f2 a2 fa|ab~b2 affa|=f^f ~f2 affa|=fe d2 e2 ag|
=f^f af gefd|e^d=dB BAAF|ABde faba|=fe d2 d2||

